X:1
T:Title
%%score 1 2 3 4
L:1/8
M:2/2
K:C
V:1 treble nm="Part_1"
V:2 treble-8 nm="Part_2"
V:3 treble-8 nm="Part_3"
V:4 bass nm="Part_4"
V:1
 z8 | z8 | z8 | D8 | F4 G4 | A6 A2 | A4 B4 | c3 B A4 | G4 z2 G2- | G2 A4 GF | !fermata!E8 || %11
 z4 D4 | D4 A4 | A4 G4 | F4 E4- | E4 z4 | z8 | z8 | D4 D4 | G4 G4 | F3 G A2 _B2- | BA A4 G2 | A8- | %23
 A8 | G8 | z4 D4 | E4 E4 | D2 G3 ABG | A2 G4 ^F2 | G8 | z8 | z8 | z4 D4 | D4 E4 | F3 G A2 _B2- | %35
 BA A4 G2 | A8- | A8 | z4 G4 | A4 F4 | E4 E4 | D4 DEFG | A2 G4 ^F2 |[M:3/2] G12 | z12 | z12 | %46
 z4 z4 E4 | F8 F4 | F8 A4 | G4 D8 | F12 | z12 | z4 z4 E4 | F8 F4 | E8 F4 | G6 F2 G4 | A12 | z12 | %58
 z4 z4 A4 | G6 G2 G4 | A8 A4 | G6 G2 G4 |[M:2/2] A4 z2 A2 | A4 G4 | F4 z2 A2 | A2 G2 F4 | %66
 z2 F2 F2 F2 | E3 F G2 A2- | AG G4 ^F2 | G8 |] %70
V:2
 D8 | F4 G4 | A6 A2 | A4 B4 | c4 z2 d2- | d2 d2 A2 d2 | c2 BA G4 | z2 E4 F2 | G3 ABc d2 | e6 dc | %10
 !fermata!c8 || G4 G4 | d4 d4 | c4 B4 | A4 A4 | c4 c4 | B3 c d2 e2- | e2 d4 ^c2 | d4 A4 | %19
 _B3 A G2 FE | D4 z4 | z8 | z4 d4 | c4 A4 | B4 B2 c2- | cBAG ^F3 E | G8- | G8 | z4 D4 | G4 C2 G2- | %30
 GABc d2 e2- | ed d4 ^c2 | d4 A4 | _B3 A G2 FE | D4 D4 | z8 | D4 F3 G | AB c4 BA | B2 G4 FE | %39
 D4 z2 D2 | G4 G4 | G2 G3 F/E/ D2 | C4 D4 |[M:3/2] E8 E4 | A8 B4 | A4 d8 | B4 c8 | d12 | z12 | %49
 z4 z4 d4 | d8 d4 | A8 d4 | c6 B2 c4 | d12 | z12 | z12 | z4 z4 d4 | c6 B2 c4 | d12 | z12 | %60
 z4 z4 d4 | d6 d2 d4 |[M:2/2] d4 z2 A2 | A3 B c2 c2 | d4 z2 d2 | c2 c2 d4 | z2 d2 d2 d2 | %67
 G3 F E2 D2 | E4 D4 | d8 |] %70
V:3
 z8 | z8 | z8 | z8 | z8 | D8 | F4 G4 | A6 A2 | B6 B2 | c3 B A4 | !fermata!G8 || z8 | z8 | z8 | z8 | %15
 z8 | z8 | z8 | z8 | G4 G4 | d4 d4 | c4 _B4 | A8- | A8 | z8 | z4 A4 | c4 c4 | B4 B4 | c3 B A4 | %29
 G8 | z8 | z8 | z8 | G4 G4 | d4 d4 | c4 _B4 | A8- | A8 | z8 | z4 A4 | c4 c4 | B4 B4 | c3 B A4 | %43
[M:3/2] G12 | z12 | z12 | z4 z4 G4 | A8 A4 | A8 A4 | B4 B8 | A12 | z12 | z4 z4 G4 | A8 A4 | A8 A4 | %55
 B6 A2 B4 | A12 | z12 | z4 z4 A4 | _B6 B2 B4 | A8 A4 | =B6 B2 B4 |[M:2/2] A4 z2 D2 | F4 G4 | %64
 A4 z2 D2 | F2 G2 A4 | z2 A2 A2 B2 | c2 BA G2 d2 | B2 c2 A4 | G8 |] %70
V:4
 z8 | z8 | D,8 | F,4 G,4 | A,2 A,2 G,2 G,2 | F,4 z2 A,2- | A,2 G,F, E,4 | A,,3 B,, C,2 D,2 | G,,8 | %9
 !fermata!C,8- | C,8 || z8 | z8 | z8 | z8 | C,4 C,4 | G,4 G,4 | F,4 E,4 | D,8 | z8 | z8 | z8 | %22
 z4 D,4 | F,4 F,4 | E,4 E,4 | F,3 E, D,4 | C,8 | z8 | z8 | C,4 C,4 | G,4 G,4 | F,4 E,4 | D,8 | z8 | %34
 z8 | z8 | z4 D,4 | F,4 F,4 | E,4 E,4 | F,3 E, D,4 | C,8 | z8 | z8 |[M:3/2] z4 z4 C,4 | D,8 D,4 | %45
 D,8 D,4 | E,8 E,4 | D,12 | z12 | z4 z4 D,4 | D,8 D,4 | D,8 D,4 | E,6 D,2 E,4 | D,12 | z12 | z12 | %56
 z4 z4 D,4 | E,6 E,2 E,4 | D,12 | z12 | z4 z4 D,4 | G,6 G,2 G,4 |[M:2/2] D,4 z2 D,2 | D,4 E,4 | %64
 D,4 z2 F,2 | F,2 E,2 D,4 | z2 D,2 D,2 D,2 | C,3 D, E,2 F,2 | G,2 C,2 D,4 | G,,8 |] %70

